icons/edit-2.svg

<svg width="24" height="24" viewBox="0 0 24 24" fill="none" xmlns="http://www.w3.org/2000/svg">
<path fill-rule="evenodd" clip-rule="evenodd" d="M15.5079 6.41001C16.0925 5.85689 17.0141 5.87994 17.5703 6.4616C18.1297 7.04665 18.1076 7.97483 17.521 8.53258L7.08055 18.4581L4.49404 18.7962L5.56073 15.8216L15.5079 6.41001ZM19.0158 5.07936C17.699 3.70237 15.5173 3.6478 14.1333 4.95722L4.01273 14.5329C3.89871 14.6408 3.81169 14.774 3.7587 14.9217L2.0587 19.6625C1.94108 19.9905 2.00269 20.3561 2.22133 20.6274C2.43997 20.8988 2.7841 21.0367 3.12963 20.9916L7.66296 20.399C7.87298 20.3715 8.06885 20.2781 8.22235 20.1322L18.899 9.98208C20.2878 8.66171 20.3402 6.46437 19.0158 5.07936ZM13 19C12.4477 19 12 19.4477 12 20C12 20.5523 12.4477 21 13 21H21C21.5523 21 22 20.5523 22 20C22 19.4477 21.5523 19 21 19H13Z" fill="#333333"/>
</svg>

<svg xmlns="http://www.w3.org/2000/svg" width="24" height="24" fill="none" viewBox="0 0 24 24">
  <path fill="#333" fill-rule="evenodd" d="M15.508 6.41a1.463 1.463 0 012.013 2.123l-10.44 9.925-2.587.338 1.067-2.974 9.947-9.412zm3.508-1.33a3.463 3.463 0 00-4.883-.123l-10.12 9.576a1 1 0 00-.254.389l-1.7 4.74a1 1 0 001.07 1.33l4.534-.593a1 1 0 00.56-.267l10.676-10.15a3.463 3.463 0 00.117-4.903zM13 19a1 1 0 100 2h8a1 1 0 100-2h-8z"/>
</svg>
